Sources/FrostedUI/Resources/Icons.xcassets/telegram20.imageset/telegram-20.svg

<svg width="20" height="20" viewBox="0 0 20 20" fill="none" xmlns="http://www.w3.org/2000/svg" data-fui-icon="true">
  <path
    d="M17.3827 2.65137C17.4593 2.6594 17.5426 2.67304 17.6278 2.69336C17.7521 2.72304 17.9125 2.77472 18.0721 2.86914L18.2303 2.97852L18.2343 2.98242C18.5971 3.27924 18.6787 3.67056 18.7069 3.82617L18.7079 3.83398L18.7098 3.84082C18.7335 3.98757 18.767 4.31625 18.7382 4.6084L18.7391 4.60938C18.5144 6.97026 17.5479 12.6372 17.0604 15.2354C16.8416 16.4095 16.3152 17.2644 15.3856 17.3496C14.7372 17.409 14.1992 17.1865 13.7606 16.9297C13.5436 16.8026 13.3348 16.657 13.1434 16.5215C12.9446 16.3807 12.7641 16.2504 12.5721 16.125C11.9185 15.6977 11.4069 15.3511 10.9042 15.0098C10.4014 14.6684 9.90803 14.3325 9.28406 13.9229H9.28308C8.88063 13.6585 8.54144 13.3606 8.35046 12.9961C8.13095 12.5769 8.15045 12.1539 8.3114 11.7881C8.44978 11.4739 8.68666 11.2143 8.87488 11.0234C8.97463 10.9223 9.08312 10.8192 9.18152 10.7246C9.28336 10.6267 9.38045 10.5319 9.47351 10.4355C9.50286 10.4052 9.58132 10.3342 9.69324 10.2295C9.14841 10.5945 8.55215 10.9933 7.90613 11.4277C7.24997 11.8775 6.56439 12.1624 5.86902 12.1475C5.51576 12.1399 5.06055 12.0466 4.64343 11.9424C4.42611 11.8881 4.20255 11.8273 3.98523 11.7637L3.36316 11.5713C2.96124 11.4408 2.45529 11.2989 2.10339 11.1289C1.91845 11.0396 1.68985 10.9052 1.51453 10.6904C1.3151 10.446 1.21696 10.1364 1.25964 9.79883H1.26062C1.31564 9.35904 1.6195 9.06396 1.85632 8.88867C2.10888 8.70183 2.4347 8.5399 2.80066 8.39355C7.09527 6.52891 9.96564 5.29706 11.4042 4.7002C13.4477 3.85323 14.6993 3.34849 15.5116 3.05469C16.311 2.76554 16.7641 2.64894 17.1757 2.6416L17.3827 2.65137ZM17.201 4.1416C17.0578 4.14429 16.8074 4.1809 16.0223 4.46484C15.2479 4.74497 14.0276 5.23663 11.9784 6.08594V6.08496C10.5531 6.67634 7.6949 7.90403 3.39832 9.76953L3.38757 9.77441L3.37585 9.7793C3.26438 9.82349 3.16794 9.86608 3.08484 9.90527C3.11585 9.91587 3.14807 9.92815 3.1825 9.93945C3.40532 10.0126 3.54862 10.0545 3.82605 10.1445L4.4071 10.3232C4.60766 10.382 4.81124 10.4385 5.00671 10.4873C5.41532 10.5894 5.72962 10.6447 5.90125 10.6484C6.1633 10.6541 6.54095 10.5462 7.05847 10.1914L7.06433 10.1875C9.07209 8.83723 10.5959 7.8192 11.6346 7.13477C12.1533 6.793 12.5548 6.53246 12.8358 6.35449C12.9755 6.26606 13.0904 6.19399 13.1776 6.14258C13.2204 6.11736 13.2637 6.09274 13.3026 6.07227C13.3105 6.06802 13.4137 6.01048 13.5341 5.9834C13.5741 5.97442 13.708 5.94216 13.8593 5.94336C14.0212 5.94467 14.2783 5.98416 14.5038 6.18652H14.5028C14.7286 6.38765 14.7947 6.63986 14.8153 6.7793C14.8357 6.91744 14.8281 7.05694 14.8016 7.17188C14.7729 7.29641 14.7196 7.39017 14.6991 7.4248C14.6711 7.47193 14.6409 7.51479 14.6161 7.54785C14.5661 7.61447 14.5062 7.68559 14.4452 7.75391C14.321 7.89294 14.1552 8.06413 13.9686 8.25098C13.5932 8.62701 13.1008 9.09682 12.6102 9.55859C12.1187 10.0213 11.623 10.4812 11.2382 10.8379C11.0452 11.0167 10.8806 11.1696 10.7577 11.2842C10.6964 11.3413 10.6465 11.3886 10.6093 11.4238C10.5704 11.4606 10.5551 11.4761 10.5536 11.4775L10.5526 11.4785C10.4386 11.5965 10.3241 11.707 10.2216 11.8057C10.1157 11.9075 10.0255 11.9937 9.94324 12.0771C9.8151 12.2071 9.74894 12.2934 9.71375 12.3467C9.76344 12.4064 9.87386 12.5156 10.1073 12.6689C10.7422 13.0858 11.2441 13.4278 11.746 13.7686C12.2475 14.1091 12.7499 14.4497 13.3915 14.8691H13.3925C13.6148 15.0144 13.8269 15.1685 14.0096 15.2979C14.1997 15.4324 14.3626 15.5435 14.5184 15.6348C14.8191 15.8108 15.0315 15.8708 15.2352 15.8555C15.245 15.8485 15.2648 15.8327 15.2919 15.7969C15.3723 15.6901 15.4949 15.4481 15.5858 14.96V14.959C16.0744 12.3554 17.0285 6.75195 17.246 4.46777V4.46289C17.2507 4.41627 17.2518 4.34306 17.2469 4.25879C17.2444 4.21555 17.2377 4.1763 17.2343 4.14453C17.2316 4.14421 17.229 4.14383 17.2264 4.14355C17.2115 4.14199 17.2022 4.14163 17.201 4.1416ZM13.7655 7.0166L13.8602 7.44238H13.8612L13.7655 7.01562V7.0166Z"
    fill="currentColor"
  />
</svg>

<svg xmlns="http://www.w3.org/2000/svg" width="20" height="20" fill="none" data-fui-icon="true" viewBox="0 0 20 20"><path fill="currentColor" d="M17.383 2.651q.116.012.245.042c.124.03.285.082.444.176l.158.11.004.003c.363.297.445.689.473.844v.008l.003.007c.023.147.057.475.028.767l.001.001c-.225 2.361-1.191 8.028-1.679 10.626-.218 1.175-.745 2.03-1.674 2.115-.649.059-1.187-.164-1.625-.42a9 9 0 0 1-.618-.409c-.198-.14-.379-.27-.57-.396-.655-.427-1.166-.774-1.669-1.115-.503-.342-.996-.678-1.62-1.087-.403-.264-.743-.562-.934-.927-.219-.42-.2-.842-.039-1.208.139-.314.376-.574.564-.765.1-.1.208-.204.307-.298q.151-.146.292-.29c.029-.03.107-.1.22-.206q-.819.548-1.788 1.199c-.656.45-1.342.734-2.037.72-.353-.008-.808-.101-1.226-.206-.217-.054-.44-.115-.658-.178l-.622-.193c-.402-.13-.908-.272-1.26-.442a1.7 1.7 0 0 1-.588-.439A1.16 1.16 0 0 1 1.26 9.8c.056-.44.36-.735.596-.91.253-.187.579-.35.945-.495C7.095 6.529 9.966 5.297 11.404 4.7c2.044-.847 3.295-1.352 4.108-1.645.799-.29 1.252-.406 1.664-.413zm-.182 1.49c-.143.003-.394.04-1.179.324-.774.28-1.994.772-4.044 1.62q-2.136.886-8.58 3.685l-.01.004-.012.005a5 5 0 0 0-.291.126q.045.016.098.034c.222.074.366.116.643.206l.581.178c.2.059.404.115.6.164.408.102.723.158.894.161.262.006.64-.102 1.157-.457l.006-.004a636 636 0 0 1 4.57-3.052q.78-.514 1.202-.78.21-.135.342-.212.065-.04.125-.07c.007-.005.11-.063.231-.09.04-.009.174-.04.325-.04.162.002.42.041.645.244h-.001a.98.98 0 0 1 .312.592c.02.138.013.278-.013.393a.9.9 0 0 1-.103.253q-.044.072-.083.123c-.05.066-.11.138-.17.206-.125.139-.29.31-.477.497-.376.376-.868.846-1.359 1.308a245 245 0 0 1-1.852 1.725l-.149.14-.055.053-.001.002c-.114.118-.229.228-.331.327-.106.102-.197.188-.279.271-.128.13-.194.216-.23.27.05.06.16.169.394.322.635.417 1.137.759 1.639 1.1.502.34 1.004.68 1.646 1.1.223.145.435.3.618.429.19.134.353.245.508.337.301.176.513.236.717.22a.3.3 0 0 0 .057-.058c.08-.107.203-.349.294-.837v-.001c.488-2.604 1.443-8.207 1.66-10.491v-.005c.005-.047.006-.12 0-.204q-.004-.066-.012-.114l-.008-.001zm-3.436 2.876.095.425h.001l-.096-.426"/></svg>
